;FLAVOR:UltiGCode
;TIME:5810      
;MATERIAL:9426      
;MATERIAL2:0         

;Layer count: 138
;LAYER:0
M107
G0 F9000 X79.800 Y61.300 Z0.300
;TYPE:SKIRT
G1 F1200 X150.200 Y61.300 E8.44800
G1 X150.200 Y163.700 E20.73600
G1 X79.800 Y163.700 E29.18400
G1 X79.800 Y61.300 E41.47200
G10
G0 F9000 X83.600 Y65.100
;TYPE:WALL-INNER
G11
G1 F1200 X146.400 Y65.100 E49.00800
G1 X146.400 Y159.900 E60.38400
G1 X83.600 Y159.900 E67.92000
G1 X83.600 Y65.100 E79.29600
G0 F9000 X83.200 Y64.700
;TYPE:WALL-OUTER
G1 F1200 X146.800 Y64.700 E86.92800
G1 X146.800 Y160.300 E98.40000
G1 X83.200 Y160.300 E106.03200
G1 X83.200 Y64.700 E117.50400
G0 F9000 X83.739 Y65.354
;TYPE:FILL
G1 F1200 X146.260 Y127.875 E128.11417
G0 F9000 X146.260 Y128.440
G1 F1200 X83.739 Y65.920 E138.72425
G0 F9000 X83.739 Y66.485
G1 F1200 X146.260 Y129.006 E149.33441
G0 F9000 X146.260 Y129.572
G1 F1200 X83.739 Y67.051 E159.94458
G0 F9000 X83.739 Y67.617
G1 F1200 X146.260 Y130.138 E170.55474
G0 F9000 X146.260 Y130.703
G1 F1200 X83.739 Y68.182 E181.16491
G0 F9000 X83.739 Y68.748
G1 F1200 X146.260 Y131.269 E191.77507
G0 F9000 X146.260 Y131.835
G1 F1200 X83.739 Y69.314 E202.38524
G0 F9000 X83.739 Y69.879
G1 F1200 X146.260 Y132.400 E212.99540
G0 F9000 X146.260 Y132.966
G1 F1200 X83.739 Y70.445 E223.60557
G0 F9000 X83.739 Y71.011
G1 F1200 X146.260 Y133.532 E234.21574
G0 F9000 X146.260 Y134.097
G1 F1200 X83.739 Y71.576 E244.82590
G0 F9000 X83.739 Y72.142
G1 F1200 X146.260 Y134.663 E255.43607
G0 F9000 X146.260 Y135.229
G1 F1200 X83.739 Y72.708 E266.04623
G0 F9000 X83.739 Y73.273
G1 F1200 X146.260 Y135.794 E276.65640
G0 F9000 X146.260 Y136.360
G1 F1200 X83.739 Y73.839 E287.26656
G0 F9000 X83.739 Y74.405
G1 F1200 X146.260 Y136.926 E297.87673
G0 F9000 X146.260 Y137.491
G1 F1200 X83.739 Y74.970 E308.48689
G0 F9000 X83.739 Y75.536
G1 F1200 X146.260 Y138.057 E319.09706
G0 F9000 X146.260 Y138.623
G1 F1200 X83.739 Y76.102 E329.70723
G0 F9000 X83.739 Y76.668
G1 F1200 X146.260 Y139.189 E340.31739
G0 F9000 X146.260 Y139.754
G1 F1200 X83.739 Y77.233 E350.92756
G0 F9000 X83.739 Y77.799
G1 F1200 X146.260 Y140.320 E361.53772
G0 F9000 X146.260 Y140.886
G1 F1200 X83.739 Y78.365 E372.14789
G0 F9000 X83.739 Y78.930
G1 F1200 X146.260 Y141.451 E382.75805
G0 F9000 X146.260 Y142.017
G1 F1200 X83.739 Y79.496 E393.36822
G0 F9000 X83.739 Y80.062
G1 F1200 X146.260 Y142.583 E403.97838
G0 F9000 X146.260 Y143.148
G1 F1200 X83.739 Y80.627 E414.58855
G0 F9000 X83.739 Y81.193
G1 F1200 X146.260 Y143.714 E425.19872
G0 F9000 X146.260 Y144.280
G1 F1200 X83.739 Y81.759 E435.80888
G0 F9000 X83.739 Y82.324
G1 F1200 X146.260 Y144.845 E446.41905
G0 F9000 X146.260 Y145.411
G1 F1200 X83.739 Y82.890 E457.02921
G0 F9000 X83.739 Y83.456
G1 F1200 X146.260 Y145.977 E467.63938
G0 F9000 X146.260 Y146.542
G1 F1200 X83.739 Y84.021 E478.24954
G0 F9000 X83.739 Y84.587
G1 F1200 X146.260 Y147.108 E488.85971
G0 F9000 X146.260 Y147.674
G1 F1200 X83.739 Y85.153 E499.46987
G0 F9000 X83.739 Y85.719
G1 F1200 X146.260 Y148.239 E510.07996
G0 F9000 X146.260 Y148.805
G1 F1200 X83.739 Y86.284 E520.69012
G0 F9000 X83.739 Y86.850
G1 F1200 X146.260 Y149.371 E531.30029
G0 F9000 X146.260 Y149.937
G1 F1200 X83.739 Y87.416 E541.91045
G0 F9000 X83.739 Y87.981
G1 F1200 X146.260 Y150.502 E552.52062
G0 F9000 X146.260 Y151.068
G1 F1200 X83.739 Y88.547 E563.13078
G0 F9000 X83.739 Y89.113
G1 F1200 X146.260 Y151.634 E573.74095
G0 F9000 X146.260 Y152.199
G1 F1200 X83.739 Y89.678 E584.35111
G0 F9000 X83.739 Y90.244
G1 F1200 X146.260 Y152.765 E594.96128
G0 F9000 X146.260 Y153.331
G1 F1200 X83.739 Y90.810 E605.57144
G0 F9000 X83.739 Y91.375
G1 F1200 X146.260 Y153.896 E616.18161
G0 F9000 X146.260 Y154.462
G1 F1200 X83.739 Y91.941 E626.79178
G0 F9000 X83.739 Y92.507
G1 F1200 X146.260 Y155.028 E637.40194
G0 F9000 X146.260 Y155.593
G1 F1200 X83.739 Y93.072 E648.01211
G0 F9000 X83.739 Y93.638
G1 F1200 X146.260 Y156.159 E658.62227
G0 F9000 X146.260 Y156.725
G1 F1200 X83.739 Y94.204 E669.23244
G0 F9000 X83.739 Y94.769
G1 F1200 X146.260 Y157.290 E679.84260
G0 F9000 X146.260 Y157.856
G1 F1200 X83.739 Y95.335 E690.45277
G0 F9000 X83.739 Y95.901
G1 F1200 X146.260 Y158.422 E701.06293
G0 F9000 X146.260 Y158.988
G1 F1200 X83.739 Y96.467 E711.67310
G0 F9000 X83.739 Y97.032
G1 F1200 X146.260 Y159.553 E722.28327
G0 F9000 X145.899 Y159.758
G1 F1200 X83.739 Y97.598 E732.83217
G0 F9000 X83.739 Y98.164
G1 F1200 X145.333 Y159.758 E743.28502
G0 F9000 X144.768 Y159.758
G1 F1200 X83.739 Y98.729 E753.64198
G0 F9000 X83.739 Y99.295
G1 F1200 X144.202 Y159.758 E763.90289
G0 F9000 X143.636 Y159.758
G1 F1200 X83.739 Y99.861 E774.06775
G0 F9000 X83.739 Y100.426
G1 F1200 X143.071 Y159.758 E784.13672
G0 F9000 X142.505 Y159.758
G1 F1200 X83.739 Y100.992 E794.10965
G0 F9000 X83.739 Y101.558
G1 F1200 X141.939 Y159.758 E803.98651
G0 F9000 X141.373 Y159.758
G1 F1200 X83.739 Y102.123 E813.76741
G0 F9000 X83.739 Y102.689
G1 F1200 X140.808 Y159.758 E823.45234
G0 F9000 X140.242 Y159.758
G1 F1200 X83.739 Y103.255 E833.04122
G0 F9000 X83.739 Y103.820
G1 F1200 X139.676 Y159.758 E842.53413
G0 F9000 X139.111 Y159.758
G1 F1200 X83.739 Y104.386 E851.93107
G0 F9000 X83.739 Y104.952
G1 F1200 X138.545 Y159.758 E861.23195
G0 F9000 X137.979 Y159.758
G1 F1200 X83.739 Y105.518 E870.43679
G0 F9000 X83.739 Y106.083
G1 F1200 X137.414 Y159.758 E879.54574
G0 F9000 X136.848 Y159.758
G1 F1200 X83.739 Y106.649 E888.55863
G0 F9000 X83.739 Y107.215
G1 F1200 X136.282 Y159.758 E897.47548
G0 F9000 X135.717 Y159.758
G1 F1200 X83.739 Y107.780 E906.29644
G0 F9000 X83.739 Y108.346
G1 F1200 X135.151 Y159.758 E915.02134
G0 F9000 X134.585 Y159.758
G1 F1200 X83.739 Y108.912 E923.65019
G0 F9000 X83.739 Y109.477
G1 F1200 X134.020 Y159.758 E932.18316
G0 F9000 X133.454 Y159.758
G1 F1200 X83.739 Y110.043 E940.62008
G0 F9000 X83.739 Y110.609
G1 F1200 X132.888 Y159.758 E948.96094
G0 F9000 X132.323 Y159.758
G1 F1200 X83.739 Y111.174 E957.20592
G0 F9000 X83.739 Y111.740
G1 F1200 X131.757 Y159.758 E965.35484
G0 F9000 X131.191 Y159.758
G1 F1200 X83.739 Y112.306 E973.40771
G0 F9000 X83.739 Y112.871
G1 F1200 X130.625 Y159.758 E981.36462
G0 F9000 X130.060 Y159.758
G1 F1200 X83.739 Y113.437 E989.22555
G0 F9000 X83.739 Y114.003
G1 F1200 X129.494 Y159.758 E996.99043
G0 F9000 X128.928 Y159.758
G1 F1200 X83.739 Y114.568 E1004.65934
G0 F9000 X83.739 Y115.134
G1 F1200 X128.363 Y159.758 E1012.23229
G0 F9000 X127.797 Y159.758
G1 F1200 X83.739 Y115.700 E1019.70918
G0 F9000 X83.739 Y116.266
G1 F1200 X127.231 Y159.758 E1027.09002
G0 F9000 X126.666 Y159.758
G1 F1200 X83.739 Y116.831 E1034.37497
G0 F9000 X83.739 Y117.397
G1 F1200 X126.100 Y159.758 E1041.56387
G0 F9000 X125.534 Y159.758
G1 F1200 X83.739 Y117.963 E1048.65672
G0 F9000 X83.739 Y118.528
G1 F1200 X124.969 Y159.758 E1055.65368
G0 F9000 X124.403 Y159.758
G1 F1200 X83.739 Y119.094 E1062.55459
G0 F9000 X83.739 Y119.660
G1 F1200 X123.837 Y159.758 E1069.35945
G0 F9000 X123.272 Y159.758
G1 F1200 X83.739 Y120.225 E1076.06842
G0 F9000 X83.739 Y120.791
G1 F1200 X122.706 Y159.758 E1082.68134
G0 F9000 X122.140 Y159.758
G1 F1200 X83.739 Y121.357 E1089.19820
G0 F9000 X83.739 Y121.922
G1 F1200 X121.574 Y159.758 E1095.61910
G0 F9000 X121.009 Y159.758
G1 F1200 X83.739 Y122.488 E1101.94403
G0 F9000 X83.739 Y123.054
G1 F1200 X120.443 Y159.758 E1108.17290
G0 F9000 X119.877 Y159.758
G1 F1200 X83.739 Y123.619 E1114.30581
G0 F9000 X83.739 Y124.185
G1 F1200 X119.312 Y159.758 E1120.34275
G0 F9000 X118.746 Y159.758
G1 F1200 X83.739 Y124.751 E1126.28363
G0 F9000 X83.739 Y125.316
G1 F1200 X118.180 Y159.758 E1132.12855
G0 F9000 X117.615 Y159.758
G1 F1200 X83.739 Y125.882 E1137.87750
G0 F9000 X83.739 Y126.448
G1 F1200 X117.049 Y159.758 E1143.53039
G0 F9000 X116.483 Y159.758
G1 F1200 X83.739 Y127.014 E1149.08723
G0 F9000 X83.739 Y127.579
G1 F1200 X115.918 Y159.758 E1154.54819
G0 F9000 X115.352 Y159.758
G1 F1200 X83.739 Y128.145 E1159.91310
G0 F9000 X83.739 Y128.711
G1 F1200 X114.786 Y159.758 E1165.18195
G0 F9000 X114.221 Y159.758
G1 F1200 X83.739 Y129.276 E1170.35491
G0 F9000 X83.739 Y129.842
G1 F1200 X113.655 Y159.758 E1175.43183
G0 F9000 X113.089 Y159.758
G1 F1200 X83.739 Y130.408 E1180.41269
G0 F9000 X83.739 Y130.973
G1 F1200 X112.524 Y159.758 E1185.29766
G0 F9000 X111.958 Y159.758
G1 F1200 X83.739 Y131.539 E1190.08659
G0 F9000 X83.739 Y132.105
G1 F1200 X111.392 Y159.758 E1194.77946
G0 F9000 X110.826 Y159.758
G1 F1200 X83.739 Y132.670 E1199.37636
G0 F9000 X83.739 Y133.236
G1 F1200 X110.261 Y159.758 E1203.87729
G0 F9000 X109.695 Y159.758
G1 F1200 X83.739 Y133.802 E1208.28217
G0 F9000 X83.739 Y134.367
G1 F1200 X109.129 Y159.758 E1212.59108
G0 F9000 X108.564 Y159.758
G1 F1200 X83.739 Y134.933 E1216.80402
G0 F9000 X83.739 Y135.499
G1 F1200 X107.998 Y159.758 E1220.92091
G0 F9000 X107.432 Y159.758
G1 F1200 X83.739 Y136.065 E1224.94175
G0 F9000 X83.739 Y136.630
G1 F1200 X106.867 Y159.758 E1228.86670
G0 F9000 X106.301 Y159.758
G1 F1200 X83.739 Y137.196 E1232.69560
G0 F9000 X83.739 Y137.762
G1 F1200 X105.735 Y159.758 E1236.42844
G0 F9000 X105.170 Y159.758
G1 F1200 X83.739 Y138.327 E1240.06540
G0 F9000 X83.739 Y138.893
G1 F1200 X104.604 Y159.758 E1243.60631
G0 F9000 X104.038 Y159.758
G1 F1200 X83.739 Y139.459 E1247.05116
G0 F9000 X83.739 Y140.024
G1 F1200 X103.473 Y159.758 E1250.40014
G0 F9000 X102.907 Y159.758
G1 F1200 X83.739 Y140.590 E1253.65305
G0 F9000 X83.739 Y141.156
G1 F1200 X102.341 Y159.758 E1256.80992
G0 F9000 X101.776 Y159.758
G1 F1200 X83.739 Y141.721 E1259.87090
G0 F9000 X83.739 Y142.287
G1 F1200 X101.210 Y159.758 E1262.83582
G0 F9000 X100.644 Y159.758
G1 F1200 X83.739 Y142.853 E1265.70470
G0 F9000 X83.739 Y143.418
G1 F1200 X100.078 Y159.758 E1268.47760
G0 F9000 X99.513 Y159.758
G1 F1200 X83.739 Y143.984 E1271.15454
G0 F9000 X83.739 Y144.550
G1 F1200 X98.947 Y159.758 E1273.73542
G0 F9000 X98.381 Y159.758
G1 F1200 X83.739 Y145.115 E1276.22034
G0 F9000 X83.739 Y145.681
G1 F1200 X97.816 Y159.758 E1278.60928
G0 F9000 X97.250 Y159.758
G1 F1200 X83.739 Y146.247 E1280.90218
G0 F9000 X83.739 Y146.813
G1 F1200 X96.684 Y159.758 E1283.09902
G0 F9000 X96.119 Y159.758
G1 F1200 X83.739 Y147.378 E1285.19997
G0 F9000 X83.739 Y147.944
G1 F1200 X95.553 Y159.758 E1287.20487
G0 F9000 X94.987 Y159.758
G1 F1200 X83.739 Y148.510 E1289.11372
G0 F9000 X83.739 Y149.075
G1 F1200 X94.422 Y159.758 E1290.92669
G0 F9000 X93.856 Y159.758
G1 F1200 X83.739 Y149.641 E1292.64360
G0 F9000 X83.739 Y150.207
G1 F1200 X93.290 Y159.758 E1294.26446
G0 F9000 X92.725 Y159.758
G1 F1200 X83.739 Y150.772 E1295.78943
G0 F9000 X83.739 Y151.338
G1 F1200 X92.159 Y159.758 E1297.21835
G0 F9000 X91.593 Y159.758
G1 F1200 X83.739 Y151.904 E1298.55122
G0 F9000 X83.739 Y152.469
G1 F1200 X91.027 Y159.758 E1299.78812
G0 F9000 X90.462 Y159.758
G1 F1200 X83.739 Y153.035 E1300.92905
G0 F9000 X83.739 Y153.601
G1 F1200 X89.896 Y159.758 E1301.97393
G0 F9000 X89.330 Y159.758
G1 F1200 X83.739 Y154.166 E1302.92284
G0 F9000 X83.739 Y154.732
G1 F1200 X88.765 Y159.758 E1303.77578
G0 F9000 X88.199 Y159.758
G1 F1200 X83.739 Y155.298 E1304.53267
G0 F9000 X83.739 Y155.864
G1 F1200 X87.633 Y159.758 E1305.19350
G0 F9000 X87.068 Y159.758
G1 F1200 X83.739 Y156.429 E1305.75845
G0 F9000 X83.739 Y156.995
G1 F1200 X86.502 Y159.758 E1306.22735
G0 F9000 X85.936 Y159.758
G1 F1200 X83.739 Y157.561 E1306.60019
G0 F9000 X83.739 Y158.126
G1 F1200 X85.371 Y159.758 E1306.87715
G0 F9000 X83.739 Y158.692
G1 F1200 X84.805 Y159.758 E1307.05806
G0 F9000 X83.739 Y159.258
G1 F1200 X84.239 Y159.758 E1307.14291
G0 F9000 X146.260 Y127.309
G1 F1200 X84.190 Y65.240 E1317.67645
G0 F9000 X84.756 Y65.240
G1 F1200 X146.260 Y126.743 E1328.11394
G0 F9000 X146.260 Y126.178
G1 F1200 X85.322 Y65.240 E1338.45546
G0 F9000 X85.888 Y65.240
G1 F1200 X146.260 Y125.612 E1348.70093
G0 F9000 X146.260 Y125.046
G1 F1200 X86.453 Y65.240 E1358.85043
G0 F9000 X87.019 Y65.240
G1 F1200 X146.260 Y124.481 E1368.90396
G0 F9000 X146.260 Y123.915
G1 F1200 X87.585 Y65.240 E1378.86144
G0 F9000 X88.150 Y65.240
G1 F1200 X146.260 Y123.349 E1388.72295
G0 F9000 X146.260 Y122.784
G1 F1200 X88.716 Y65.240 E1398.48849
G0 F9000 X89.282 Y65.240
G1 F1200 X146.260 Y122.218 E1408.15798
G0 F9000 X146.260 Y121.652
G1 F1200 X89.847 Y65.240 E1417.73150
G0 F9000 X90.413 Y65.240
G1 F1200 X146.260 Y121.087 E1427.20905
G0 F9000 X146.260 Y120.521
G1 F1200 X90.979 Y65.240 E1436.59054
G0 F9000 X91.544 Y65.240
G1 F1200 X146.260 Y119.955 E1445.87607
G0 F9000 X146.260 Y119.390
G1 F1200 X92.110 Y65.240 E1455.06563
G0 F9000 X92.676 Y65.240
G1 F1200 X146.260 Y118.824 E1464.15914
G0 F9000 X146.260 Y118.258
G1 F1200 X93.241 Y65.240 E1473.15668
G0 F9000 X93.807 Y65.240
G1 F1200 X146.260 Y117.692 E1482.05816
G0 F9000 X146.260 Y117.127
G1 F1200 X94.373 Y65.240 E1490.86368
G0 F9000 X94.938 Y65.240
G1 F1200 X146.260 Y116.561 E1499.57322
G0 F9000 X146.260 Y115.995
G1 F1200 X95.504 Y65.240 E1508.18672
G0 F9000 X96.070 Y65.240
G1 F1200 X146.260 Y115.430 E1516.70424
G0 F9000 X146.260 Y114.864
G1 F1200 X96.636 Y65.240 E1525.12571
G0 F9000 X97.201 Y65.240
G1 F1200 X146.260 Y114.298 E1533.45122
G0 F9000 X146.260 Y113.733
G1 F1200 X97.767 Y65.240 E1541.68075
G0 F9000 X98.333 Y65.240
G1 F1200 X146.260 Y113.167 E1549.81424
G0 F9000 X146.260 Y112.601
G1 F1200 X98.898 Y65.240 E1557.85175
G0 F9000 X99.464 Y65.240
G1 F1200 X146.260 Y112.036 E1565.79329
G0 F9000 X146.260 Y111.470
G1 F1200 X100.030 Y65.240 E1573.63878
G0 F9000 X100.595 Y65.240
G1 F1200 X146.260 Y110.904 E1581.38831
G0 F9000 X146.260 Y110.339
G1 F1200 X101.161 Y65.240 E1589.04186
G0 F9000 X101.727 Y65.240
G1 F1200 X146.260 Y109.773 E1596.59936
G0 F9000 X146.260 Y109.207
G1 F1200 X102.292 Y65.240 E1604.06089
G0 F9000 X102.858 Y65.240
G1 F1200 X146.260 Y108.642 E1611.42646
G0 F9000 X146.260 Y108.076
G1 F1200 X103.424 Y65.240 E1618.69597
G0 F9000 X103.989 Y65.240
G1 F1200 X146.260 Y107.510 E1625.86951
G0 F9000 X146.260 Y106.944
G1 F1200 X104.555 Y65.240 E1632.94700
G0 F9000 X105.121 Y65.240
G1 F1200 X146.260 Y106.379 E1639.92852
G0 F9000 X146.260 Y105.813
G1 F1200 X105.687 Y65.240 E1646.81398
G0 F9000 X106.252 Y65.240
G1 F1200 X146.260 Y105.247 E1653.60348
G0 F9000 X146.260 Y104.682
G1 F1200 X106.818 Y65.240 E1660.29701
G0 F9000 X107.384 Y65.240
G1 F1200 X146.260 Y104.116 E1666.89449
G0 F9000 X146.260 Y103.550
G1 F1200 X107.949 Y65.240 E1673.39599
G0 F9000 X108.515 Y65.240
G1 F1200 X146.260 Y102.985 E1679.80153
G0 F9000 X146.260 Y102.419
G1 F1200 X109.081 Y65.240 E1686.11102
G0 F9000 X109.646 Y65.240
G1 F1200 X146.260 Y101.853 E1692.32454
G0 F9000 X146.260 Y101.288
G1 F1200 X110.212 Y65.240 E1698.44208
G0 F9000 X110.778 Y65.240
G1 F1200 X146.260 Y100.722 E1704.46358
G0 F9000 X146.260 Y100.156
G1 F1200 X111.343 Y65.240 E1710.38911
G0 F9000 X111.909 Y65.240
G1 F1200 X146.260 Y99.591 E1716.21866
G0 F9000 X146.260 Y99.025
G1 F1200 X112.475 Y65.240 E1721.95217
G0 F9000 X113.040 Y65.240
G1 F1200 X146.260 Y98.459 E1727.58970
G0 F9000 X146.260 Y97.893
G1 F1200 X113.606 Y65.240 E1733.13119
G0 F9000 X114.172 Y65.240
G1 F1200 X146.260 Y97.328 E1738.57670
G0 F9000 X146.260 Y96.762
G1 F1200 X114.737 Y65.240 E1743.92625
G0 F9000 X115.303 Y65.240
G1 F1200 X146.260 Y96.196 E1749.17974
G0 F9000 X146.260 Y95.631
G1 F1200 X115.869 Y65.240 E1754.33726
G0 F9000 X116.435 Y65.240
G1 F1200 X146.260 Y95.065 E1759.39873
G0 F9000 X146.260 Y94.499
G1 F1200 X117.000 Y65.240 E1764.36424
G0 F9000 X117.566 Y65.240
G1 F1200 X146.260 Y93.934 E1769.23377
G0 F9000 X146.260 Y93.368
G1 F1200 X118.132 Y65.240 E1774.00725
G0 F9000 X118.697 Y65.240
G1 F1200 X146.260 Y92.802 E1778.68476
G0 F9000 X146.260 Y92.237
G1 F1200 X119.263 Y65.240 E1783.26630
G0 F9000 X119.829 Y65.240
G1 F1200 X146.260 Y91.671 E1787.75179
G0 F9000 X146.260 Y91.105
G1 F1200 X120.394 Y65.240 E1792.14131
G0 F9000 X120.960 Y65.240
G1 F1200 X146.260 Y90.540 E1796.43487
G0 F9000 X146.260 Y89.974
G1 F1200 X121.526 Y65.240 E1800.63236
G0 F9000 X122.091 Y65.240
G1 F1200 X146.260 Y89.408 E1804.73389
G0 F9000 X146.260 Y88.843
G1 F1200 X122.657 Y65.240 E1808.73946
G0 F9000 X123.223 Y65.240
G1 F1200 X146.260 Y88.277 E1812.64897
G0 F9000 X146.260 Y87.711
G1 F1200 X123.788 Y65.240 E1816.46251
G0 F9000 X124.354 Y65.240
G1 F1200 X146.260 Y87.145 E1820.17999
G0 F9000 X146.260 Y86.580
