;FLAVOR:UltiGCode
;TIME:2209      
;MATERIAL:9712      
;MATERIAL2:0         

;Layer count: 62
;LAYER:0
M107
G0 F9000 X91.055 Y67.233 Z0.300
;TYPE:SKIRT
G1 F1800 X160.555 Y67.233 E10.42500
G1 X160.555 Y168.733 E25.65000
G1 X91.055 Y168.733 E36.07500
G1 X91.055 Y67.233 E51.30000
G10
G0 F9000 X95.055 Y71.233
;TYPE:WALL-INNER
G11
G1 F1800 X156.555 Y71.233 E60.52500
G1 X156.555 Y164.733 E74.55000
G1 X95.055 Y164.733 E83.77500
G1 X95.055 Y71.233 E97.80000
G0 F9000 X94.555 Y70.733
;TYPE:WALL-OUTER
G1 F1800 X157.055 Y70.733 E107.17500
G1 X157.055 Y165.233 E121.35000
G1 X94.555 Y165.233 E130.72500
G1 X94.555 Y70.733 E144.90000
G0 F9000 X95.228 Y71.540
;TYPE:FILL
G1 F1800 X156.380 Y132.692 E157.87230
G0 F9000 X156.380 Y133.399
G1 F1800 X95.228 Y72.247 E170.84460
G0 F9000 X95.228 Y72.955
G1 F1800 X156.380 Y134.106 E183.81679
G0 F9000 X156.380 Y134.813
G1 F1800 X95.228 Y73.662 E196.78898
G0 F9000 X95.228 Y74.369
G1 F1800 X156.380 Y135.520 E209.76117
G0 F9000 X156.380 Y136.227
G1 F1800 X95.228 Y75.076 E222.73336
G0 F9000 X95.228 Y75.783
G1 F1800 X156.380 Y136.934 E235.70556
G0 F9000 X156.380 Y137.641
G1 F1800 X95.228 Y76.490 E248.67775
G0 F9000 X95.228 Y77.197
G1 F1800 X156.380 Y138.348 E261.64994
G0 F9000 X156.380 Y139.056
G1 F1800 X95.228 Y77.904 E274.62224
G0 F9000 X95.228 Y78.611
G1 F1800 X156.380 Y139.763 E287.59454
G0 F9000 X156.380 Y140.470
G1 F1800 X95.228 Y79.318 E300.56684
G0 F9000 X95.228 Y80.026
G1 F1800 X156.380 Y141.177 E313.53903
G0 F9000 X156.380 Y141.884
G1 F1800 X95.228 Y80.733 E326.51122
G0 F9000 X95.228 Y81.440
G1 F1800 X156.380 Y142.591 E339.48341
G0 F9000 X156.380 Y143.298
G1 F1800 X95.228 Y82.147 E352.45560
G0 F9000 X95.228 Y82.854
G1 F1800 X156.380 Y144.005 E365.42780
G0 F9000 X156.380 Y144.712
G1 F1800 X95.228 Y83.561 E378.39999
G0 F9000 X95.228 Y84.268
G1 F1800 X156.380 Y145.420 E391.37229
G0 F9000 X156.380 Y146.127
G1 F1800 X95.228 Y84.975 E404.34458
G0 F9000 X95.228 Y85.682
G1 F1800 X156.380 Y146.834 E417.31688
G0 F9000 X156.380 Y147.541
G1 F1800 X95.228 Y86.390 E430.28907
G0 F9000 X95.228 Y87.097
G1 F1800 X156.380 Y148.248 E443.26127
G0 F9000 X156.380 Y148.955
G1 F1800 X95.228 Y87.804 E456.23346
G0 F9000 X95.228 Y88.511
G1 F1800 X156.380 Y149.662 E469.20565
G0 F9000 X156.380 Y150.369
G1 F1800 X95.228 Y89.218 E482.17784
G0 F9000 X95.228 Y89.925
G1 F1800 X156.380 Y151.076 E495.15004
G0 F9000 X156.380 Y151.784
G1 F1800 X95.228 Y90.632 E508.12233
G0 F9000 X95.228 Y91.339
G1 F1800 X156.380 Y152.491 E521.09463
G0 F9000 X156.380 Y153.198
G1 F1800 X95.228 Y92.046 E534.06693
G0 F9000 X95.228 Y92.754
G1 F1800 X156.380 Y153.905 E547.03912
G0 F9000 X156.380 Y154.612
G1 F1800 X95.228 Y93.461 E560.01131
G0 F9000 X95.228 Y94.168
G1 F1800 X156.380 Y155.319 E572.98351
G0 F9000 X156.380 Y156.026
G1 F1800 X95.228 Y94.875 E585.95570
G0 F9000 X95.228 Y95.582
G1 F1800 X156.380 Y156.733 E598.92789
G0 F9000 X156.380 Y157.440
G1 F1800 X95.228 Y96.289 E611.90008
G0 F9000 X95.228 Y96.996
G1 F1800 X156.380 Y158.147 E624.87227
G0 F9000 X156.380 Y158.855
G1 F1800 X95.228 Y97.703 E637.84457
G0 F9000 X95.228 Y98.410
G1 F1800 X156.380 Y159.562 E650.81687
G0 F9000 X156.380 Y160.269
G1 F1800 X95.228 Y99.117 E663.78917
G0 F9000 X95.228 Y99.825
G1 F1800 X156.380 Y160.976 E676.76136
G0 F9000 X156.380 Y161.683
G1 F1800 X95.228 Y100.532 E689.73355
G0 F9000 X95.228 Y101.239
G1 F1800 X156.380 Y162.390 E702.70575
G0 F9000 X156.380 Y163.097
G1 F1800 X95.228 Y101.946 E715.67794
G0 F9000 X95.228 Y102.653
G1 F1800 X156.380 Y163.804 E728.65013
G0 F9000 X156.380 Y164.511
G1 F1800 X95.228 Y103.360 E741.62232
G0 F9000 X95.228 Y104.067
G1 F1800 X155.718 Y164.557 E754.45419
G0 F9000 X155.011 Y164.557
G1 F1800 X95.228 Y104.774 E767.13608
G0 F9000 X95.228 Y105.481
G1 F1800 X154.304 Y164.557 E779.66799
G0 F9000 X153.597 Y164.557
G1 F1800 X95.228 Y106.189 E792.04982
G0 F9000 X95.228 Y106.896
G1 F1800 X152.889 Y164.557 E804.28156
G0 F9000 X152.182 Y164.557
G1 F1800 X95.228 Y107.603 E816.36333
G0 F9000 X95.228 Y108.310
G1 F1800 X151.475 Y164.557 E828.29512
G0 F9000 X150.768 Y164.557
G1 F1800 X95.228 Y109.017 E840.07694
G0 F9000 X95.228 Y109.724
G1 F1800 X150.061 Y164.557 E851.70877
G0 F9000 X149.354 Y164.557
G1 F1800 X95.228 Y110.431 E863.19063
G0 F9000 X95.228 Y111.138
G1 F1800 X148.647 Y164.557 E874.52251
G0 F9000 X147.940 Y164.557
G1 F1800 X95.228 Y111.845 E885.70441
G0 F9000 X95.228 Y112.553
G1 F1800 X147.233 Y164.557 E896.73623
G0 F9000 X146.525 Y164.557
G1 F1800 X95.228 Y113.260 E907.61797
G0 F9000 X95.228 Y113.967
G1 F1800 X145.818 Y164.557 E918.34973
G0 F9000 X145.111 Y164.557
G1 F1800 X95.228 Y114.674 E928.93151
G0 F9000 X95.228 Y115.381
G1 F1800 X144.404 Y164.557 E939.36332
G0 F9000 X143.697 Y164.557
G1 F1800 X95.228 Y116.088 E949.64515
G0 F9000 X95.228 Y116.795
G1 F1800 X142.990 Y164.557 E959.77700
G0 F9000 X142.283 Y164.557
G1 F1800 X95.228 Y117.502 E969.75887
G0 F9000 X95.228 Y118.209
G1 F1800 X141.576 Y164.557 E979.59076
G0 F9000 X140.869 Y164.557
G1 F1800 X95.228 Y118.916 E989.27268
G0 F9000 X95.228 Y119.624
G1 F1800 X140.161 Y164.557 E998.80441
G0 F9000 X139.454 Y164.557
G1 F1800 X95.228 Y120.331 E1008.18616
G0 F9000 X95.228 Y121.038
G1 F1800 X138.747 Y164.557 E1017.41794
G0 F9000 X138.040 Y164.557
G1 F1800 X95.228 Y121.745 E1026.49973
G0 F9000 X95.228 Y122.452
G1 F1800 X137.333 Y164.557 E1035.43155
G0 F9000 X136.626 Y164.557
G1 F1800 X95.228 Y123.159 E1044.21339
G0 F9000 X95.228 Y123.866
G1 F1800 X135.919 Y164.557 E1052.84526
G0 F9000 X135.212 Y164.557
G1 F1800 X95.228 Y124.573 E1061.32715
G0 F9000 X95.228 Y125.280
G1 F1800 X134.505 Y164.557 E1069.65906
G0 F9000 X133.798 Y164.557
G1 F1800 X95.228 Y125.988 E1077.84088
G0 F9000 X95.228 Y126.695
G1 F1800 X133.090 Y164.557 E1085.87263
G0 F9000 X132.383 Y164.557
G1 F1800 X95.228 Y127.402 E1093.75439
G0 F9000 X95.228 Y128.109
G1 F1800 X131.676 Y164.557 E1101.48618
G0 F9000 X130.969 Y164.557
G1 F1800 X95.228 Y128.816 E1109.06799
G0 F9000 X95.228 Y129.523
G1 F1800 X130.262 Y164.557 E1116.49983
G0 F9000 X129.555 Y164.557
G1 F1800 X95.228 Y130.230 E1123.78168
G0 F9000 X95.228 Y130.937
G1 F1800 X128.848 Y164.557 E1130.91356
G0 F9000 X128.141 Y164.557
G1 F1800 X95.228 Y131.644 E1137.89546
G0 F9000 X95.228 Y132.352
G1 F1800 X127.434 Y164.557 E1144.72728
G0 F9000 X126.726 Y164.557
G1 F1800 X95.228 Y133.059 E1151.40902
G0 F9000 X95.228 Y133.766
G1 F1800 X126.019 Y164.557 E1157.94077
G0 F9000 X125.312 Y164.557
G1 F1800 X95.228 Y134.473 E1164.32255
G0 F9000 X95.228 Y135.180
G1 F1800 X124.605 Y164.557 E1170.55436
G0 F9000 X123.898 Y164.557
G1 F1800 X95.228 Y135.887 E1176.63618
G0 F9000 X95.228 Y136.594
G1 F1800 X123.191 Y164.557 E1182.56803
G0 F9000 X122.484 Y164.557
G1 F1800 X95.228 Y137.301 E1188.34990
G0 F9000 X95.228 Y138.008
G1 F1800 X121.777 Y164.557 E1193.98179
G0 F9000 X121.070 Y164.557
G1 F1800 X95.228 Y138.715 E1199.46371
G0 F9000 X95.228 Y139.423
G1 F1800 X120.363 Y164.557 E1204.79554
G0 F9000 X119.655 Y164.557
G1 F1800 X95.228 Y140.130 E1209.97729
G0 F9000 X95.228 Y140.837
G1 F1800 X118.948 Y164.557 E1215.00906
G0 F9000 X118.241 Y164.557
G1 F1800 X95.228 Y141.544 E1219.89086
G0 F9000 X95.228 Y142.251
G1 F1800 X117.534 Y164.557 E1224.62267
G0 F9000 X116.827 Y164.557
G1 F1800 X95.228 Y142.958 E1229.20451
G0 F9000 X95.228 Y143.665
G1 F1800 X116.120 Y164.557 E1233.63638
G0 F9000 X115.413 Y164.557
G1 F1800 X95.228 Y144.372 E1237.91826
G0 F9000 X95.228 Y145.079
G1 F1800 X114.706 Y164.557 E1242.05017
G0 F9000 X113.999 Y164.557
G1 F1800 X95.228 Y145.787 E1246.03199
G0 F9000 X95.228 Y146.494
G1 F1800 X113.291 Y164.557 E1249.86374
G0 F9000 X112.584 Y164.557
G1 F1800 X95.228 Y147.201 E1253.54550
G0 F9000 X95.228 Y147.908
G1 F1800 X111.877 Y164.557 E1257.07728
G0 F9000 X111.170 Y164.557
G1 F1800 X95.228 Y148.615 E1260.45909
G0 F9000 X95.228 Y149.322
G1 F1800 X110.463 Y164.557 E1263.69093
G0 F9000 X109.756 Y164.557
G1 F1800 X95.228 Y150.029 E1266.77278
G0 F9000 X95.228 Y150.736
G1 F1800 X109.049 Y164.557 E1269.70466
G0 F9000 X108.342 Y164.557
G1 F1800 X95.228 Y151.443 E1272.48656
G0 F9000 X95.228 Y152.150
G1 F1800 X107.635 Y164.557 E1275.11848
G0 F9000 X106.927 Y164.557
G1 F1800 X95.228 Y152.858 E1277.60021
G0 F9000 X95.228 Y153.565
G1 F1800 X106.220 Y164.557 E1279.93197
G0 F9000 X105.513 Y164.557
G1 F1800 X95.228 Y154.272 E1282.11374
G0 F9000 X95.228 Y154.979
G1 F1800 X104.806 Y164.557 E1284.14554
G0 F9000 X104.099 Y164.557
G1 F1800 X95.228 Y155.686 E1286.02737
G0 F9000 X95.228 Y156.393
G1 F1800 X103.392 Y164.557 E1287.75921
G0 F9000 X102.685 Y164.557
G1 F1800 X95.228 Y157.100 E1289.34108
G0 F9000 X95.228 Y157.807
G1 F1800 X101.978 Y164.557 E1290.77297
G0 F9000 X101.271 Y164.557
G1 F1800 X95.228 Y158.514 E1292.05489
G0 F9000 X95.228 Y159.222
G1 F1800 X100.564 Y164.557 E1293.18672
G0 F9000 X99.856 Y164.557
G1 F1800 X95.228 Y159.929 E1294.16847
G0 F9000 X95.228 Y160.636
G1 F1800 X99.149 Y164.557 E1295.00023
G0 F9000 X98.442 Y164.557
G1 F1800 X95.228 Y161.343 E1295.68203
G0 F9000 X95.228 Y162.050
G1 F1800 X97.735 Y164.557 E1296.21384
G0 F9000 X97.028 Y164.557
G1 F1800 X95.228 Y162.757 E1296.59568
G0 F9000 X95.228 Y163.464
G1 F1800 X96.321 Y164.557 E1296.82754
G0 F9000 X95.228 Y164.171
G1 F1800 X95.614 Y164.557 E1296.90942
G0 F9000 X156.380 Y131.985
G1 F1800 X95.803 Y71.407 E1309.75985
G0 F9000 X96.510 Y71.407
G1 F1800 X156.380 Y131.277 E1322.46020
G0 F9000 X156.380 Y130.570
G1 F1800 X97.217 Y71.407 E1335.01056
G0 F9000 X97.924 Y71.407
G1 F1800 X156.380 Y129.863 E1347.41095
G0 F9000 X156.380 Y129.156
G1 F1800 X98.631 Y71.407 E1359.66137
G0 F9000 X99.338 Y71.407
G1 F1800 X156.380 Y128.449 E1371.76180
G0 F9000 X156.380 Y127.742
G1 F1800 X100.045 Y71.407 E1383.71226
G0 F9000 X100.752 Y71.407
G1 F1800 X156.380 Y127.035 E1395.51274
G0 F9000 X156.380 Y126.328
G1 F1800 X101.459 Y71.407 E1407.16324
G0 F9000 X102.167 Y71.407
G1 F1800 X156.380 Y125.621 E1418.66366
G0 F9000 X156.380 Y124.913
G1 F1800 X102.874 Y71.407 E1430.01400
G0 F9000 X103.581 Y71.407
G1 F1800 X156.380 Y124.206 E1441.21436
G0 F9000 X156.380 Y123.499
G1 F1800 X104.288 Y71.407 E1452.26474
G0 F9000 X104.995 Y71.407
G1 F1800 X156.380 Y122.792 E1463.16515
G0 F9000 X156.380 Y122.085
G1 F1800 X105.702 Y71.407 E1473.91557
G0 F9000 X106.409 Y71.407
G1 F1800 X156.380 Y121.378 E1484.51602
G0 F9000 X156.380 Y120.671
G1 F1800 X107.116 Y71.407 E1494.96650
G0 F9000 X107.823 Y71.407
G1 F1800 X156.380 Y119.964 E1505.26699
G0 F9000 X156.380 Y119.257
G1 F1800 X108.530 Y71.407 E1515.41751
G0 F9000 X109.238 Y71.407
G1 F1800 X156.380 Y118.549 E1525.41784
G0 F9000 X156.380 Y117.842
G1 F1800 X109.945 Y71.407 E1535.26819
G0 F9000 X110.652 Y71.407
G1 F1800 X156.380 Y117.135 E1544.96856
G0 F9000 X156.380 Y116.428
G1 F1800 X111.359 Y71.407 E1554.51896
G0 F9000 X112.066 Y71.407
G1 F1800 X156.380 Y115.721 E1563.91938
G0 F9000 X156.380 Y115.014
G1 F1800 X112.773 Y71.407 E1573.16982
G0 F9000 X113.480 Y71.407
G1 F1800 X156.380 Y114.307 E1582.27028
G0 F9000 X156.380 Y113.600
G1 F1800 X114.187 Y71.407 E1591.22077
G0 F9000 X114.894 Y71.407
G1 F1800 X156.380 Y112.893 E1600.02128
G0 F9000 X156.380 Y112.186
G1 F1800 X115.602 Y71.407 E1608.67171
G0 F9000 X116.309 Y71.407
G1 F1800 X156.380 Y111.478 E1617.17205
G0 F9000 X156.380 Y110.771
G1 F1800 X117.016 Y71.407 E1625.52241
G0 F9000 X117.723 Y71.407
G1 F1800 X156.380 Y110.064 E1633.72280
G0 F9000 X156.380 Y109.357
G1 F1800 X118.430 Y71.407 E1641.77321
G0 F9000 X119.137 Y71.407
G1 F1800 X156.380 Y108.650 E1649.67365
G0 F9000 X156.380 Y107.943
G1 F1800 X119.844 Y71.407 E1657.42410
G0 F9000 X120.551 Y71.407
G1 F1800 X156.380 Y107.236 E1665.02458
G0 F9000 X156.380 Y106.529
G1 F1800 X121.258 Y71.407 E1672.47508
G0 F9000 X121.966 Y71.407
G1 F1800 X156.380 Y105.822 E1679.77550
G0 F9000 X156.380 Y105.114
G1 F1800 X122.673 Y71.407 E1686.92584
G0 F9000 X123.380 Y71.407
G1 F1800 X156.380 Y104.407 E1693.92619
G0 F9000 X156.380 Y103.700
G1 F1800 X124.087 Y71.407 E1700.77657
G0 F9000 X124.794 Y71.407
G1 F1800 X156.380 Y102.993 E1707.47697
G0 F9000 X156.380 Y102.286
G1 F1800 X125.501 Y71.407 E1714.02740
G0 F9000 X126.208 Y71.407
G1 F1800 X156.380 Y101.579 E1720.42785
G0 F9000 X156.380 Y100.872
G1 F1800 X126.915 Y71.407 E1726.67832
G0 F9000 X127.622 Y71.407
G1 F1800 X156.380 Y100.165 E1732.77881
G0 F9000 X156.380 Y99.458
G1 F1800 X128.329 Y71.407 E1738.72933
G0 F9000 X129.037 Y71.407
G1 F1800 X156.380 Y98.750 E1744.52965
G0 F9000 X156.380 Y98.043
G1 F1800 X129.744 Y71.407 E1750.18000
G0 F9000 X130.451 Y71.407
G1 F1800 X156.380 Y97.336 E1755.68037
G0 F9000 X156.380 Y96.629
G1 F1800 X131.158 Y71.407 E1761.03077
G0 F9000 X131.865 Y71.407
G1 F1800 X156.380 Y95.922 E1766.23118
G0 F9000 X156.380 Y95.215
G1 F1800 X132.572 Y71.407 E1771.28162
G0 F9000 X133.279 Y71.407
G1 F1800 X156.380 Y94.508 E1776.18209
G0 F9000 X156.380 Y93.801
G1 F1800 X133.986 Y71.407 E1780.93257
G0 F9000 X134.693 Y71.407
G1 F1800 X156.380 Y93.094 E1785.53308
G0 F9000 X156.380 Y92.387
G1 F1800 X135.401 Y71.407 E1789.98350
G0 F9000 X136.108 Y71.407
G1 F1800 X156.380 Y91.679 E1794.28384
G0 F9000 X156.380 Y90.972
G1 F1800 X136.815 Y71.407 E1798.43421
G0 F9000 X137.522 Y71.407
G1 F1800 X156.380 Y90.265 E1802.43459
G0 F9000 X156.380 Y89.558
G1 F1800 X138.229 Y71.407 E1806.28500
G0 F9000 X138.936 Y71.407
G1 F1800 X156.380 Y88.851 E1809.98543
G0 F9000 X156.380 Y88.144
G1 F1800 X139.643 Y71.407 E1813.53589
G0 F9000 X140.350 Y71.407
G1 F1800 X156.380 Y87.437 E1816.93636
G0 F9000 X156.380 Y86.730
G1 F1800 X141.057 Y71.407 E1820.18686
G0 F9000 X141.765 Y71.407
G1 F1800 X156.380 Y86.023 E1823.28728
G0 F9000 X156.380 Y85.315
G1 F1800 X142.472 Y71.407 E1826.23761
G0 F9000 X143.179 Y71.407
G1 F1800 X156.380 Y84.608 E1829.03796
G0 F9000 X156.380 Y83.901
G1 F1800 X143.886 Y71.407 E1831.68834
G0 F9000 X144.593 Y71.407
G1 F1800 X156.380 Y83.194 E1834.18874
G0 F9000 X156.380 Y82.487
G1 F1800 X145.300 Y71.407 E1836.53917
G0 F9000 X146.007 Y71.407
G1 F1800 X156.380 Y81.780 E1838.73961
G0 F9000 X156.380 Y81.073
G1 F1800 X146.714 Y71.407 E1840.79008
G0 F9000 X147.421 Y71.407
G1 F1800 X156.380 Y80.366 E1842.69057
G0 F9000 X156.380 Y79.659
G1 F1800 X148.128 Y71.407 E1844.44108
G0 F9000 X148.836 Y71.407
G1 F1800 X156.380 Y78.952 E1846.04151
G0 F9000 X156.380 Y78.244
G1 F1800 X149.543 Y71.407 E1847.49186
G0 F9000 X150.250 Y71.407
G1 F1800 X156.380 Y77.537 E1848.79223
G0 F9000 X156.380 Y76.830
G1 F1800 X150.957 Y71.407 E1849.94262
G0 F9000 X151.664 Y71.407
G1 F1800 X156.380 Y76.123 E1850.94304
G0 F9000 X156.380 Y75.416
G1 F1800 X152.371 Y71.407 E1851.79347
G0 F9000 X153.078 Y71.407
G1 F1800 X156.380 Y74.709 E1852.49393
G0 F9000 X156.380 Y74.002
G1 F1800 X153.785 Y71.407 E1853.04442
G0 F9000 X154.492 Y71.407
G1 F1800 X156.380 Y73.295 E1853.44492
G0 F9000 X156.380 Y72.588
G1 F1800 X155.200 Y71.407 E1853.69534
G0 F9000 X155.907 Y71.407
G1 F1800 X156.380 Y71.880 E1853.79568
;LAYER:1
M106 S255
G0 F9000 X156.555 Y71.233 Z0.500
;TYPE:WALL-INNER
G1 F2220 X156.555 Y164.733 E1863.14568
G1 X95.055 Y164.733 E1869.29568
G1 X95.055 Y71.233 E1878.64568
G1 X156.555 Y71.233 E1884.79568
G0 F9000 X157.055 Y70.733
;TYPE:WALL-OUTER
G1 F2220 X157.055 Y165.233 E1894.24568
G1 X94.555 Y165.233 E1900.49568
G1 X94.555 Y70.733 E1909.94568
G1 X157.055 Y70.733 E1916.19568
G0 F9000 X156.379 Y71.662
;TYPE:FILL
G1 F2220 X95.229 Y132.812 E1924.84360
G0 F9000 X95.229 Y133.519
G1 F2220 X156.379 Y72.369 E1933.49151
G0 F9000 X156.379 Y73.076
G1 F2220 X95.229 Y134.226 E1942.13943
G0 F9000 X95.229 Y134.933
G1 F2220 X156.379 Y73.783 E1950.78735
G0 F9000 X156.379 Y74.490
G1 F2220 X95.229 Y135.640 E1959.43526
G0 F9000 X95.229 Y136.347
G1 F2220 X156.379 Y75.197 E1968.08318
G0 F9000 X156.379 Y75.905
G1 F2220 X95.229 Y137.054 E1976.73102
G0 F9000 X95.229 Y137.762
G1 F2220 X156.379 Y76.612 E1985.37894
G0 F9000 X156.379 Y77.319
G1 F2220 X95.229 Y138.469 E1994.02685
G0 F9000 X95.229 Y139.176
G1 F2220 X156.379 Y78.026 E2002.67477
G0 F9000 X156.379 Y78.733
G1 F2220 X95.229 Y139.883 E2011.32269
G0 F9000 X95.229 Y140.590
G1 F2220 X156.379 Y79.440 E2019.97060
G0 F9000 X156.379 Y80.147
G1 F2220 X95.229 Y141.297 E2028.61852
G0 F9000 X95.229 Y142.004
G1 F2220 X156.379 Y80.854 E2037.26643
G0 F9000 X156.379 Y81.561
G1 F2220 X95.229 Y142.711 E2045.91435
