;FLAVOR:UltiGCode
;TIME:9683      
;MATERIAL:16341     
;MATERIAL2:0         

;Layer count: 132
;LAYER:0
M107
G0 F9000 X84.144 Y68.381 Z0.300
G0 X85.625 Y66.872
;TYPE:SKIRT
G1 F1200 X86.445 Y66.175 E0.12914
G1 X87.297 Y65.535 E0.25702
G1 X88.196 Y64.942 E0.38625
G1 X89.123 Y64.406 E0.51475
G1 X90.099 Y63.919 E0.64564
G1 X91.072 Y63.508 E0.77239
G1 X91.642 Y63.296 E0.84537
G1 X92.647 Y62.977 E0.97190
G1 X93.706 Y62.710 E1.10295
G1 X94.772 Y62.511 E1.23308
G1 X95.811 Y62.381 E1.35873
G1 X96.620 Y62.320 E1.45609
G1 X97.451 Y62.301 E1.55584
G1 X98.048 Y62.300 E1.62748
G1 X132.328 Y62.300 E5.74108
G1 X133.220 Y62.313 E5.84813
G1 X134.186 Y62.380 E5.96433
G1 X135.158 Y62.499 E6.08184
G1 X136.118 Y62.673 E6.19891
G1 X137.067 Y62.898 E6.31595
G1 X138.006 Y63.176 E6.43347
G1 X138.941 Y63.512 E6.55269
G1 X139.854 Y63.898 E6.67164
G1 X140.745 Y64.336 E6.79078
G1 X141.608 Y64.823 E6.90969
G1 X142.454 Y65.363 E7.03013
G1 X143.263 Y65.947 E7.14986
G1 X144.042 Y66.580 E7.27031
G1 X144.793 Y67.264 E7.39221
G1 X145.500 Y67.986 E7.51347
G1 X146.167 Y68.751 E7.63526
G1 X146.795 Y69.561 E7.75826
G1 X147.371 Y70.399 E7.88028
G1 X147.899 Y71.271 E8.00261
G1 X148.383 Y72.186 E8.12682
G1 X148.802 Y73.104 E8.24791
G1 X149.019 Y73.643 E8.31764
G1 X149.339 Y74.544 E8.43238
G1 X149.602 Y75.435 E8.54386
G1 X149.807 Y76.286 E8.64890
G1 X149.960 Y77.098 E8.74805
G1 X150.071 Y77.872 E8.84188
G1 X150.145 Y78.606 E8.93041
G1 X150.187 Y79.328 E9.01720
G1 X150.200 Y80.252 E9.12809
G1 X150.200 Y144.815 E16.87565
G1 X150.194 Y145.424 E16.94873
G1 X150.162 Y146.174 E17.03881
G1 X150.103 Y146.868 E17.12239
G1 X150.007 Y147.611 E17.21229
G1 X149.903 Y148.229 E17.28750
G1 X149.780 Y148.833 E17.36146
G1 X149.638 Y149.427 E17.43475
G1 X149.474 Y150.017 E17.50824
G1 X149.291 Y150.600 E17.58156
G1 X149.083 Y151.189 E17.65652
G1 X148.858 Y151.762 E17.73039
G1 X148.607 Y152.338 E17.80579
G1 X148.342 Y152.893 E17.87959
G1 X148.052 Y153.453 E17.95527
G1 X147.741 Y154.000 E18.03077
G1 X147.419 Y154.524 E18.10458
G1 X147.069 Y155.053 E18.18069
G1 X146.702 Y155.563 E18.25609
G1 X146.317 Y156.064 E18.33191
G1 X145.914 Y156.548 E18.40749
G1 X145.492 Y157.020 E18.48347
G1 X145.056 Y157.477 E18.55926
G1 X144.595 Y157.922 E18.63615
G1 X144.128 Y158.345 E18.71176
G1 X143.632 Y158.762 E18.78952
G1 X143.128 Y159.153 E18.86607
G1 X142.608 Y159.530 E18.94314
G1 X142.079 Y159.883 E19.01946
G1 X141.537 Y160.220 E19.09605
G1 X140.973 Y160.540 E19.17386
G1 X140.403 Y160.838 E19.25104
G1 X139.814 Y161.118 E19.32930
G1 X139.222 Y161.374 E19.40670
G1 X138.616 Y161.609 E19.48470
G1 X138.004 Y161.823 E19.56250
G1 X137.378 Y162.014 E19.64104
G1 X136.758 Y162.180 E19.71806
G1 X135.691 Y162.411 E19.84906
G1 X134.644 Y162.570 E19.97615
G1 X133.574 Y162.668 E20.10508
G1 X132.722 Y162.698 E20.20739
G1 X132.157 Y162.700 E20.27519
G1 X97.408 Y162.700 E24.44507
G1 X96.689 Y162.681 E24.53138
G1 X95.844 Y162.623 E24.63302
G1 X95.017 Y162.526 E24.73294
G1 X94.333 Y162.416 E24.81607
G1 X93.605 Y162.267 E24.90524
G1 X92.643 Y162.023 E25.02434
G1 X91.695 Y161.722 E25.14369
G1 X90.759 Y161.369 E25.26374
G1 X89.836 Y160.956 E25.38508
G1 X88.943 Y160.496 E25.50562
G1 X88.075 Y159.983 E25.62661
G1 X87.222 Y159.413 E25.74972
G1 X86.414 Y158.800 E25.87143
G1 X85.639 Y158.141 E25.99350
G1 X84.893 Y157.426 E26.11750
G1 X84.199 Y156.678 E26.23994
G1 X83.542 Y155.888 E26.36324
G1 X82.926 Y155.046 E26.48844
G1 X82.361 Y154.175 E26.61302
G1 X81.845 Y153.262 E26.73887
G1 X81.386 Y152.328 E26.86375
G1 X80.983 Y151.365 E26.98902
G1 X80.634 Y150.370 E27.11555
G1 X80.348 Y149.372 E27.24013
G1 X80.166 Y148.587 E27.33683
G1 X80.032 Y147.862 E27.42531
G1 X79.910 Y146.979 E27.53227
G1 X79.841 Y146.210 E27.62492
G1 X79.805 Y145.444 E27.71695
G1 X79.800 Y144.770 E27.79783
G1 X79.800 Y79.762 E35.59879
G1 X79.840 Y78.771 E35.71780
G1 X79.942 Y77.745 E35.84153
G1 X80.102 Y76.738 E35.96389
G1 X80.319 Y75.739 E36.08656
G1 X80.598 Y74.739 E36.21115
G1 X80.934 Y73.759 E36.33547
G1 X81.329 Y72.801 E36.45981
G1 X81.781 Y71.857 E36.58541
G1 X82.290 Y70.942 E36.71106
G1 X82.857 Y70.054 E36.83749
G1 X83.469 Y69.207 E36.96288
G1 X84.144 Y68.381 E37.09089
G1 X84.862 Y67.607 E37.21758
G1 X85.625 Y66.872 E37.34471
G10
G0 F9000 X89.496 Y68.636
;TYPE:WALL-INNER
G11
G1 F1200 X90.189 Y68.179 E37.44432
G1 X90.926 Y67.754 E37.54642
G1 X91.689 Y67.373 E37.64876
G1 X92.478 Y67.040 E37.75152
G1 X93.687 Y66.634 E37.90457
G1 X94.522 Y66.423 E38.00791
G1 X95.366 Y66.266 E38.11093
G1 X96.188 Y66.163 E38.21034
G1 X96.798 Y66.117 E38.28375
G1 X97.503 Y66.101 E38.36837
G1 X98.052 Y66.100 E38.43425
G1 X132.297 Y66.100 E42.54365
G1 X133.054 Y66.111 E42.63450
G1 X133.823 Y66.164 E42.72700
G1 X134.602 Y66.260 E42.82119
G1 X135.328 Y66.391 E42.90972
G1 X136.094 Y66.573 E43.00419
G1 X136.815 Y66.787 E43.09445
G1 X137.557 Y67.053 E43.18903
G1 X138.290 Y67.363 E43.28454
G1 X138.960 Y67.693 E43.37416
G1 X139.653 Y68.083 E43.46958
G1 X140.332 Y68.517 E43.56629
G1 X140.945 Y68.960 E43.65704
G1 X141.569 Y69.466 E43.75345
G1 X142.141 Y69.988 E43.84638
G1 X142.720 Y70.579 E43.94566
G1 X143.225 Y71.158 E44.03785
G1 X143.721 Y71.797 E44.13492
G1 X144.186 Y72.475 E44.23358
G1 X144.592 Y73.146 E44.32769
G1 X144.971 Y73.862 E44.42491
G1 X145.315 Y74.616 E44.52436
G1 X145.460 Y74.976 E44.57093
G1 X145.728 Y75.733 E44.66730
G1 X145.931 Y76.419 E44.75314
G1 X146.087 Y77.070 E44.83348
G1 X146.213 Y77.735 E44.91470
G1 X146.298 Y78.331 E44.98694
G1 X146.356 Y78.905 E45.05617
G1 X146.388 Y79.465 E45.12348
G1 X146.400 Y80.275 E45.22069
G1 X146.400 Y144.794 E52.96297
G1 X146.395 Y145.330 E53.02729
G1 X146.370 Y145.917 E53.09780
G1 X146.322 Y146.471 E53.16453
G1 X146.249 Y147.043 E53.23372
G1 X146.071 Y148.001 E53.35065
G1 X145.827 Y148.948 E53.46800
G1 X145.525 Y149.851 E53.58226
G1 X145.341 Y150.320 E53.64272
G1 X144.944 Y151.191 E53.75758
G1 X144.710 Y151.643 E53.81866
G1 X144.209 Y152.488 E53.93654
G1 X143.659 Y153.286 E54.05284
G1 X143.342 Y153.698 E54.11522
G1 X142.698 Y154.444 E54.23349
G1 X141.999 Y155.147 E54.35245
G1 X141.252 Y155.799 E54.47143
G1 X140.849 Y156.112 E54.53267
G1 X140.012 Y156.694 E54.65500
G1 X139.162 Y157.199 E54.77365
G1 X138.697 Y157.442 E54.83661
G1 X137.771 Y157.861 E54.95857
G1 X137.301 Y158.043 E55.01905
G1 X136.329 Y158.361 E55.14178
G1 X135.007 Y158.671 E55.30472
G1 X134.197 Y158.794 E55.40303
G1 X133.331 Y158.874 E55.50740
G1 X132.639 Y158.898 E55.59049
G1 X97.466 Y158.900 E59.81125
G1 X96.873 Y158.884 E59.88243
G1 X96.189 Y158.838 E59.96470
G1 X95.534 Y158.761 E60.04384
G1 X95.025 Y158.678 E60.10572
G1 X94.439 Y158.559 E60.17748
G1 X93.692 Y158.369 E60.26997
G1 X92.937 Y158.130 E60.36501
G1 X92.216 Y157.858 E60.45748
G1 X91.475 Y157.526 E60.55491
G1 X90.789 Y157.173 E60.64749
G1 X90.103 Y156.768 E60.74309
G1 X89.426 Y156.314 E60.84091
G1 X88.794 Y155.835 E60.93607
G1 X88.181 Y155.314 E61.03261
G1 X87.605 Y154.762 E61.12834
G1 X87.056 Y154.171 E61.22514
G1 X86.541 Y153.550 E61.32195
G1 X86.054 Y152.886 E61.42076
G1 X85.603 Y152.190 E61.52029
G1 X85.212 Y151.497 E61.61577
G1 X84.844 Y150.748 E61.71591
G1 X84.533 Y150.005 E61.81257
G1 X84.257 Y149.219 E61.91253
G1 X84.030 Y148.425 E62.01163
G1 X83.885 Y147.800 E62.08862
G1 X83.782 Y147.242 E62.15671
G1 X83.688 Y146.562 E62.23909
G1 X83.632 Y145.937 E62.31439
G1 X83.604 Y145.351 E62.38479
G1 X83.600 Y144.759 E62.45583
G1 X83.600 Y79.851 E70.24479
G1 X83.634 Y79.018 E70.34484
G1 X83.711 Y78.239 E70.43877
G1 X83.841 Y77.423 E70.53793
G1 X84.007 Y76.660 E70.63163
G1 X84.227 Y75.871 E70.72992
G1 X84.490 Y75.104 E70.82722
G1 X84.808 Y74.333 E70.92730
G1 X85.160 Y73.600 E71.02488
G1 X85.552 Y72.896 E71.12157
G1 X86.011 Y72.176 E71.22403
G1 X86.472 Y71.538 E71.31849
G1 X87.016 Y70.873 E71.42159
G1 X87.579 Y70.265 E71.52103
G1 X88.178 Y69.688 E71.62083
G1 X88.805 Y69.156 E71.71950
G1 X89.496 Y68.636 E71.82328
G0 F9000 X91.647 Y67.282
G0 X91.521 Y67.009
;TYPE:WALL-OUTER
G1 F1200 X92.332 Y66.667 E71.92890
G1 X92.747 Y66.512 E71.98206
G1 X93.584 Y66.247 E72.08741
G1 X94.429 Y66.034 E72.19199
G1 X95.301 Y65.871 E72.29844
G1 X96.150 Y65.765 E72.40111
G1 X96.781 Y65.717 E72.47705
G1 X97.494 Y65.701 E72.56263
G1 X132.302 Y65.700 E76.73959
G1 X133.073 Y65.711 E76.83212
G1 X133.862 Y65.766 E76.92703
G1 X134.651 Y65.863 E77.02242
G1 X135.420 Y66.002 E77.11620
G1 X136.191 Y66.185 E77.21129
G1 X136.953 Y66.411 E77.30666
G1 X137.705 Y66.681 E77.40254
G1 X138.446 Y66.994 E77.49907
G1 X139.154 Y67.342 E77.59374
G1 X139.852 Y67.736 E77.68992
G1 X140.547 Y68.180 E77.78889
G1 X141.200 Y68.651 E77.88551
G1 X141.819 Y69.154 E77.98122
G1 X142.435 Y69.716 E78.08128
G1 X143.006 Y70.299 E78.17920
G1 X143.537 Y70.908 E78.27616
G1 X144.052 Y71.572 E78.37700
G1 X144.510 Y72.239 E78.47409
G1 X144.937 Y72.944 E78.57300
G1 X145.334 Y73.694 E78.67483
G1 X145.679 Y74.450 E78.77455
G1 X145.838 Y74.843 E78.82543
G1 X146.105 Y75.600 E78.92175
G1 X146.318 Y76.320 E79.01185
G1 X146.481 Y76.995 E79.09518
G1 X146.606 Y77.660 E79.17638
G1 X146.695 Y78.278 E79.25130
G1 X146.754 Y78.870 E79.32269
G1 X146.788 Y79.456 E79.39313
G1 X146.800 Y80.275 E79.49142
G1 X146.800 Y144.798 E87.23418
G1 X146.795 Y145.331 E87.29815
G1 X146.768 Y145.959 E87.37358
G1 X146.722 Y146.502 E87.43897
G1 X146.644 Y147.109 E87.51241
G1 X146.561 Y147.603 E87.57252
G1 X146.460 Y148.094 E87.63267
G1 X146.214 Y149.049 E87.75101
G1 X145.895 Y150.003 E87.87172
G1 X145.515 Y150.924 E87.99128
G1 X145.299 Y151.375 E88.05129
G1 X145.065 Y151.827 E88.11237
G1 X144.813 Y152.271 E88.17363
G1 X144.272 Y153.120 E88.29444
G1 X143.976 Y153.530 E88.35512
G1 X143.664 Y153.936 E88.41656
G1 X143.336 Y154.330 E88.47808
G1 X142.993 Y154.715 E88.53996
G1 X142.647 Y155.076 E88.59996
G1 X142.270 Y155.441 E88.66293
G1 X141.895 Y155.780 E88.72359
G1 X141.497 Y156.115 E88.78602
G1 X141.086 Y156.434 E88.84845
G1 X140.668 Y156.737 E88.91040
G1 X140.241 Y157.023 E88.97207
G1 X139.803 Y157.294 E89.03388
G1 X139.341 Y157.557 E89.09768
G1 X138.889 Y157.793 E89.15886
G1 X138.406 Y158.022 E89.22301
G1 X137.930 Y158.228 E89.28525
G1 X137.443 Y158.418 E89.34798
G1 X136.942 Y158.592 E89.41162
G1 X136.443 Y158.745 E89.47425
G1 X135.954 Y158.876 E89.53500
G1 X135.082 Y159.064 E89.64205
G1 X134.227 Y159.194 E89.74582
G1 X133.365 Y159.273 E89.84970
G1 X132.653 Y159.298 E89.93519
G1 X97.455 Y159.300 E94.15895
G1 X96.854 Y159.284 E94.23110
G1 X96.154 Y159.236 E94.31529
G1 X95.482 Y159.157 E94.39649
G1 X94.948 Y159.071 E94.46139
G1 X94.365 Y158.952 E94.53280
G1 X93.578 Y158.752 E94.63024
G1 X92.804 Y158.507 E94.72766
G1 X92.061 Y158.226 E94.82298
G1 X91.305 Y157.888 E94.92236
G1 X90.583 Y157.516 E95.01982
G1 X89.882 Y157.102 E95.11752
G1 X89.199 Y156.644 E95.21620
G1 X88.547 Y156.150 E95.31436
G1 X87.914 Y155.612 E95.41405
G1 X87.321 Y155.044 E95.51259
G1 X86.751 Y154.430 E95.61312
G1 X86.220 Y153.790 E95.71291
G1 X85.729 Y153.120 E95.81259
G1 X85.267 Y152.407 E95.91454
G1 X84.856 Y151.680 E96.01476
G1 X84.481 Y150.916 E96.11689
G1 X84.160 Y150.150 E96.21655
G1 X83.873 Y149.333 E96.32047
G1 X83.642 Y148.526 E96.42120
G1 X83.495 Y147.890 E96.49953
G1 X83.389 Y147.315 E96.56969
G1 X83.288 Y146.589 E96.65765
G1 X83.234 Y145.982 E96.73078
G1 X83.204 Y145.349 E96.80682
G1 X83.200 Y144.759 E96.87762
G1 X83.200 Y79.835 E104.66850
G1 X83.234 Y79.002 E104.76855
G1 X83.315 Y78.185 E104.86707
G1 X83.446 Y77.360 E104.96731
G1 X83.618 Y76.563 E105.06515
G1 X83.848 Y75.743 E105.16735
G1 X84.114 Y74.965 E105.26601
G1 X84.438 Y74.180 E105.36792
G1 X84.800 Y73.425 E105.46840
G1 X85.209 Y72.690 E105.56933
G1 X85.674 Y71.961 E105.67309
G1 X86.162 Y71.285 E105.77314
G1 X86.713 Y70.611 E105.87761
G1 X87.294 Y69.985 E105.98010
G1 X87.912 Y69.390 E106.08304
G1 X88.564 Y68.836 E106.18571
G1 X89.257 Y68.315 E106.28975
G1 X89.989 Y67.832 E106.39499
G1 X90.732 Y67.403 E106.49795
G1 X91.521 Y67.009 E106.60378
G0 F9000 X91.609 Y67.568
;TYPE:FILL
G1 F1200 X146.255 Y122.214 E115.87751
G0 F9000 X146.255 Y122.779
G1 F1200 X91.233 Y67.757 E125.21505
G0 F9000 X90.862 Y67.952
G1 F1200 X146.255 Y123.345 E134.61556
G0 F9000 X146.255 Y123.911
G1 F1200 X90.503 Y68.158 E144.07707
G0 F9000 X90.151 Y68.372
G1 F1200 X146.255 Y124.476 E153.59823
G0 F9000 X146.255 Y125.042
G1 F1200 X89.810 Y68.597 E163.17727
G0 F9000 X89.475 Y68.827
G1 F1200 X146.256 Y125.609 E172.81341
G0 F9000 X146.256 Y126.174
G1 F1200 X89.152 Y69.070 E182.50428
G0 F9000 X88.833 Y69.316
G1 F1200 X146.256 Y126.740 E192.24937
G0 F9000 X146.256 Y127.306
G1 F1200 X88.526 Y69.576 E202.04648
G0 F9000 X88.223 Y69.838
G1 F1200 X146.256 Y127.871 E211.89500
G0 F9000 X146.256 Y128.437
G1 F1200 X87.935 Y70.116 E221.79240
G0 F9000 X87.648 Y70.394
G1 F1200 X146.256 Y129.003 E231.73860
G0 F9000 X146.257 Y129.569
G1 F1200 X87.376 Y70.688 E241.73103
G0 F9000 X87.105 Y70.983
G1 F1200 X146.257 Y130.135 E251.76946
G0 F9000 X146.257 Y130.700
G1 F1200 X86.851 Y71.294 E261.85099
G0 F9000 X86.596 Y71.605
G1 F1200 X146.257 Y131.266 E271.97580
G0 F9000 X146.257 Y131.832
G1 F1200 X86.357 Y71.932 E282.14117
G0 F9000 X86.121 Y72.262
G1 F1200 X146.257 Y132.397 E292.34650
G0 F9000 X146.257 Y132.963
G1 F1200 X85.900 Y72.607 E302.58934
G0 F9000 X85.680 Y72.952
G1 F1200 X146.257 Y133.530 E312.86968
G0 F9000 X146.257 Y134.095
G1 F1200 X85.477 Y73.314 E323.18447
G0 F9000 X85.275 Y73.679
G1 F1200 X146.257 Y134.661 E333.53346
G0 F9000 X146.257 Y135.227
G1 F1200 X85.092 Y74.061 E343.91359
G0 F9000 X84.910 Y74.445
G1 F1200 X146.257 Y135.792 E354.32452
G0 F9000 X146.257 Y136.358
G1 F1200 X84.746 Y74.847 E364.76329
G0 F9000 X84.586 Y75.252
G1 F1200 X146.257 Y136.924 E375.22929
G0 F9000 X146.258 Y137.490
G1 F1200 X84.441 Y75.673 E385.71998
G0 F9000 X84.306 Y76.104
G1 F1200 X146.258 Y138.056 E396.23358
G0 F9000 X146.258 Y138.621
G1 F1200 X84.183 Y76.547 E406.76797
G0 F9000 X84.074 Y77.003
G1 F1200 X146.258 Y139.187 E417.32095
G0 F9000 X146.258 Y139.753
G1 F1200 X83.974 Y77.469 E427.89089
G0 F9000 X83.896 Y77.957
G1 F1200 X146.258 Y140.318 E438.47399
G0 F9000 X146.258 Y140.884
G1 F1200 X83.828 Y78.454 E449.06871
G0 F9000 X83.778 Y78.970
G1 F1200 X146.259 Y141.451 E459.67209
G0 F9000 X146.259 Y142.016
G1 F1200 X83.753 Y79.510 E470.27971
G0 F9000 X83.739 Y80.062
G1 F1200 X146.259 Y142.582 E480.88971
G0 F9000 X146.259 Y143.148
G1 F1200 X83.739 Y80.627 E491.49979
G0 F9000 X83.739 Y81.193
G1 F1200 X146.259 Y143.713 E502.10978
G0 F9000 X146.259 Y144.279
G1 F1200 X83.739 Y81.759 E512.71978
G0 F9000 X83.739 Y82.324
G1 F1200 X146.259 Y144.845 E523.32986
G0 F9000 X146.251 Y145.403
G1 F1200 X83.739 Y82.890 E533.93858
G0 F9000 X83.739 Y83.456
G1 F1200 X146.226 Y145.944 E544.54306
G0 F9000 X146.182 Y146.465
G1 F1200 X83.739 Y84.021 E555.14008
G0 F9000 X83.739 Y84.587
G1 F1200 X146.118 Y146.967 E565.72623
G0 F9000 X146.031 Y147.445
G1 F1200 X83.739 Y85.153 E576.29753
G0 F9000 X83.739 Y85.719
G1 F1200 X145.942 Y147.922 E586.85373
G0 F9000 X145.830 Y148.375
G1 F1200 X83.739 Y86.284 E597.39092
G0 F9000 X83.739 Y86.850
G1 F1200 X145.714 Y148.825 E607.90843
G0 F9000 X145.577 Y149.253
G1 F1200 X83.739 Y87.416 E618.40260
G0 F9000 X83.739 Y87.981
G1 F1200 X145.434 Y149.677 E628.87267
G0 F9000 X145.280 Y150.089
G1 F1200 X83.739 Y88.547 E639.31661
G0 F9000 X83.739 Y89.113
G1 F1200 X145.111 Y150.485 E649.73179
G0 F9000 X144.934 Y150.873
G1 F1200 X83.739 Y89.678 E660.11692
G0 F9000 X83.739 Y90.244
G1 F1200 X144.751 Y151.257 E670.47109
G0 F9000 X144.555 Y151.627
G1 F1200 X83.739 Y90.810 E680.79199
G0 F9000 X83.739 Y91.376
G1 F1200 X144.345 Y151.982 E691.07717
G0 F9000 X144.135 Y152.338
G1 F1200 X83.739 Y91.942 E701.32671
G0 F9000 X83.739 Y92.507
G1 F1200 X143.908 Y152.677 E711.53781
G0 F9000 X143.677 Y153.011
G1 F1200 X83.739 Y93.073 E721.70963
G0 F9000 X83.739 Y93.639
G1 F1200 X143.440 Y153.340 E731.84122
G0 F9000 X143.192 Y153.657
G1 F1200 X83.739 Y94.205 E741.93065
G0 F9000 X83.739 Y94.770
G1 F1200 X142.930 Y153.961 E751.97569
G0 F9000 X142.668 Y154.265
G1 F1200 X83.739 Y95.336 E761.97628
G0 F9000 X83.739 Y95.902
G1 F1200 X142.391 Y154.553 E771.92977
G0 F9000 X142.109 Y154.837
G1 F1200 X83.739 Y96.467 E781.83548
G0 F9000 X83.739 Y97.033
G1 F1200 X141.820 Y155.114 E791.69216
G0 F9000 X141.518 Y155.378
G1 F1200 X83.739 Y97.599 E801.49758
